svg/switchgear.svg

<svg width="24" height="24" viewBox="0 0 24 24" xmlns="http://www.w3.org/2000/svg"><path d="M20 4.5H4c-1.1 0-2 .9-2 2v11c0 1.1.9 2 2 2h16c1.1 0 2-.9 2-2v-11c0-1.1-.9-2-2-2zM10 11h4v2h-4v-2zm0 4h4v2.5h-4V15zm4-6h-4V6.5h4V9zM4 6.5h4V11H4V6.5zM4 13h4v4.5H4V13zm16 4.5h-4V15h4v2.5zm0-4.5h-4v-2h4v2zm0-4h-4V6.5h4V9z"/></svg>

<svg width="24" height="24" viewBox="0 0 24 24" xmlns="http://www.w3.org/2000/svg">
<path d="M20 4.5H4C2.9 4.5 2 5.4 2 6.5V17.5C2 18.6 2.9 19.5 4 19.5H20C21.1 19.5 22 18.6 22 17.5V6.5C22 5.4 21.1 4.5 20 4.5ZM10 11H14V13H10V11ZM10 15H14V17.5H10V15ZM14 9H10V6.5H14V9ZM4 6.5H8V11H4V6.5ZM4 13H8V17.5H4V13ZM20 17.5H16V15H20V17.5ZM20 13H16V11H20V13ZM20 9H16V6.5H20V9Z" />
</svg>
